X: 72
T: THE LITTLE RED LARK
B: O'Neill's 72
M: 6/8
L: 1/8
Z: Transcribed by John Chambers <jc@trillian.mit.edu>
N: "Gracefully"
K:G
D \
| (G2A) (GEF) | (G2A) (Bge) | dBG B>AG | E3 ({G}F2D) |
| .G.A.G .G.E.F | (G2A) (B<g)e | (dBG) (B>AG) | G3- G2 ||
|| d \
| (gfg) (edB) | (gfe) (d<g)e | dBG B>AG | E3 ({G}F2D) |
| .G.A.G .G.E.F | G2A (B<g)e | (dBG) (B>AG) | G3- G2 ||


